brandFactory_export/1.Light/Maletas carro _1Light.svg

<?xml version="1.0" encoding="UTF-8"?>
<svg width="24px" height="24px" viewBox="0 0 24 24" version="1.1" xmlns="http://www.w3.org/2000/svg" xmlns:xlink="http://www.w3.org/1999/xlink">
    <title>1.Light/Maletas carro _1Light</title>
    <g id="Symbols" stroke="none" stroke-width="1" fill="none" fill-rule="evenodd">
        <g id="1.Light/Maletas-carro-_1Light" fill="#5CB615" fill-rule="nonzero">
            <path d="M9.33781513,22.5344538 C8.48067227,22.6890756 7.77815126,22.5647059 7.25714286,22.1747899 C6.73277311,21.7882353 6.4,21.1394958 6.2487395,20.2487395 C5.96302521,18.4504202 6.72268908,17.3411765 8.45042017,17.0352941 C8.68571429,16.994958 8.91428571,16.9848739 9.11932773,16.9848739 C9.68403361,16.9848739 10.1546218,17.1193277 10.5310924,17.405042 C11.0521008,17.794958 11.3882353,18.4436975 11.5394958,19.3344538 C11.8252101,21.1294118 11.0621849,22.2386555 9.33781513,22.5344538 Z M10.1647059,9.52941176 C10.1378151,9.38487395 10.205042,9.27394958 10.2621849,9.2605042 L13.3445378,8.72941176 L13.7882353,11.4890756 C13.8285714,11.7344538 14.0336134,11.9193277 14.2722689,11.9193277 C14.302521,11.9193277 14.3327731,11.9092437 14.3495798,11.9092437 L16.7294118,11.4991597 C16.8605042,11.4689076 16.9747899,11.3915966 17.0554622,11.2840336 C17.1361345,11.1764706 17.1663866,11.0352941 17.1327731,10.9042017 L16.6991597,8.14117647 L19.3848739,7.68067227 L19.405042,7.68067227 C19.4823529,7.68067227 19.5529412,7.80168067 19.5630252,7.88571429 L20.6857143,14.8235294 C20.7058824,14.9680672 20.6352941,15.0789916 20.5781513,15.092437 L11.4588235,16.6722689 C11.3714286,16.702521 11.2907563,16.5579832 11.2840336,16.4672269 L10.1647059,9.52941176 L10.1647059,9.52941176 Z M16.087395,10.5647059 L14.6756303,10.810084 L14.3226891,8.56134454 L15.7243697,8.31596639 C15.7210084,8.31596639 16.087395,10.5647059 16.087395,10.5647059 Z M8.96134454,2.20840336 L10.994958,1.86890756 L11.3109244,3.80840336 C11.3310924,3.94285714 11.3983193,4.06386555 11.5092437,4.13781513 C11.5932773,4.19831933 11.6941176,4.22857143 11.794958,4.23193277 L11.8722689,4.23193277 L13.6504202,3.92268908 C13.9226891,3.86554622 14.1042017,3.60336134 14.0537815,3.32773109 L13.7478992,1.41848739 L15.7613445,1.0789916 L16.7092437,7.09579832 L9.94621849,8.22521008 L8.96134454,2.20840336 L8.96134454,2.20840336 Z M12.7697479,1.57310924 L12.994958,2.99159664 L12.194958,3.13613445 L11.9697479,1.70756303 C11.9697479,1.70420168 12.7697479,1.57310924 12.7697479,1.57310924 Z M22.107563,17.2168067 L12.4436975,18.8907563 C12.3462185,18.4302521 12.2084034,17.9865546 12,17.6168067 L20.7428571,16.097479 C21.3546218,15.9966387 21.7579832,15.3478992 21.6504202,14.6588235 L20.5378151,7.71764706 C20.4907563,7.40504202 20.3327731,7.11596639 20.0941176,6.90756303 C19.8487395,6.70252101 19.5327731,6.59831933 19.2268908,6.66218487 L17.687395,6.92773109 C17.687395,6.90756303 17.697479,6.88739496 17.687395,6.87731092 L16.7294118,0.904201681 C16.692437,0.638655462 16.5579832,0.4 16.3529412,0.228571429 C16.1478992,0.0470588235 15.8722689,-0.0302521008 15.6033613,0.0134453782 L8.80336134,1.20336134 C8.55798319,1.24369748 8.3394958,1.38487395 8.20168067,1.59327731 C8.03361345,1.82857143 7.97310924,2.12773109 8.02352941,2.42352941 L8.98151261,8.38991597 C9.00840336,8.61512605 9.12941176,8.82352941 9.28739496,8.97478992 C9.2,9.2 9.14957983,9.43529412 9.18991597,9.69411765 L10.2252101,16.1445378 C9.79159664,16 9.29747899,15.9462185 8.77647059,15.9798319 L6.54453782,2.05378151 C6.50756303,1.8487395 6.35294118,1.68403361 6.1512605,1.63361345 L2.59495798,0.944537815 C2.32605042,0.897478992 2.07058824,1.0789916 2.02352941,1.34789916 L2.02352941,1.35462185 C1.97310924,1.62689076 2.14789916,1.89243697 2.41680672,1.94957983 L5.62352941,2.57478992 L7.80504202,16.1478992 C5.87226891,16.6823529 4.92436975,18.2420168 5.28067227,20.4201681 C5.45882353,21.5697479 5.94957983,22.4638655 6.68235294,23.0084034 C7.22352941,23.4184874 7.90588235,23.6235294 8.67563025,23.6235294 C8.94453782,23.6235294 9.22016807,23.6033613 9.49579832,23.5495798 C10.6117647,23.3546218 11.4689076,22.8537815 11.9932773,22.0840336 C12.4,21.4957983 12.5983193,20.7495798 12.5747899,19.9159664 L22.2756303,18.2218487 C22.5445378,18.1815126 22.7226891,17.912605 22.6823529,17.6336134 C22.6285714,17.3512605 22.3731092,17.1563025 22.107563,17.2168067 L22.107563,17.2168067 Z" id="Maletas-carro-_1Light"></path>
        </g>
    </g>
</svg>

<svg width="24" height="24" viewBox="0 0 24 24" xmlns="http://www.w3.org/2000/svg"><path d="M9.338 22.534c-.857.155-1.56.03-2.08-.36-.525-.386-.858-1.035-1.01-1.925-.285-1.799.475-2.908 2.202-3.214.236-.04.464-.05.67-.05.564 0 1.035.134 1.411.42.521.39.857 1.039 1.008 1.93.286 1.794-.477 2.904-2.201 3.2zm.827-13.005c-.027-.144.04-.255.097-.268l3.083-.532.443 2.76c.04.245.246.43.484.43.03 0 .06-.01.078-.01l2.38-.41a.568.568 0 00.325-.215.451.451 0 00.078-.38l-.434-2.763 2.686-.46h.02c.077 0 .148.12.158.205l1.123 6.938c.02.144-.05.255-.108.268l-9.12 1.58c-.087.03-.167-.114-.174-.205l-1.12-6.938zm5.922 1.036l-1.411.245-.353-2.249 1.401-.245c-.003 0 .363 2.249.363 2.249zM8.961 2.208l2.034-.34.316 1.94c.02.135.087.256.198.33.084.06.185.09.286.094h.077l1.778-.31a.515.515 0 00.404-.594l-.306-1.91 2.013-.339.948 6.017-6.763 1.13-.985-6.018zm3.809-.635l.225 1.419-.8.144-.225-1.428c0-.004.8-.135.8-.135zm9.338 15.644l-9.664 1.674c-.098-.46-.236-.904-.444-1.274l8.743-1.52c.612-.1 1.015-.75.907-1.438l-1.112-6.941a1.345 1.345 0 00-.444-.81c-.245-.205-.561-.31-.867-.246l-1.54.266c0-.02.01-.04 0-.05L16.73.903a1.071 1.071 0 00-.376-.675.91.91 0 00-.75-.216l-6.8 1.19a.896.896 0 00-.601.39 1.104 1.104 0 00-.178.83l.958 5.967a.993.993 0 00.305.585c-.087.225-.137.46-.097.72l1.035 6.45a3.823 3.823 0 00-1.449-.165L6.545 2.054a.531.531 0 00-.394-.42L2.595.944a.495.495 0 00-.571.404v.007a.513.513 0 00.393.595l3.207.625 2.181 13.573c-1.933.534-2.88 2.094-2.524 4.272.178 1.15.669 2.044 1.401 2.588.542.41 1.224.616 1.994.616.269 0 .544-.02.82-.074 1.116-.195 1.973-.696 2.497-1.466.407-.588.605-1.334.582-2.168l9.7-1.694c.27-.04.448-.31.407-.588-.053-.283-.309-.478-.574-.417z" fill="#5CB615" fill-rule="nonzero"/></svg>
